X:1
T:Title
%%score { ( 1 3 ) | 2 }
L:1/8
M:6/8
K:Eb
V:1 treble nm="Grand Piano"
V:3 treble 
V:2 bass 
V:1
 z3 z2[Q:1/4=95] E | GGG GFE | [GB][GB][Ac] [GB]2 E | [DF][DF][DF] [DF][EG][FA] | %4
 [FA][EG][DF] G2 E | GGG GFE | [GB][GB][Ac] [GB]2 [Gc] | ddd edc | [DB][DB][EB] [FB]3 | %9
 B>GF z A,B, | e>dc B2 B | [DB][DF][EG] [FA][Ad][DAc] |[M:5/8] [EGB][B,EG][B,FA] [GB]2 | %13
[M:1/8] [GB] |[M:3/4] cc c c2 F/F/ | BB [AB] [GB]2 [Ge] | [Fd]>[Ac] [GB][FA]- [FA]/[EG]/[DF] | %17
[M:5/8] E-E- E3 |] %18
V:2
 z3 z2 [E,G,] | [E,B,E][E,B,E][E,B,E] [E,B,E][E,A,B,][E,G,B,] | [E,E][E,E][E,E] [E,E]2 [E,G,] | %3
 [B,,B,][B,,B,][B,,B,] [B,,B,][B,,B,][B,,B,] | [B,,B,][B,,B,][B,,B,] [E,B,E]2 [E,G,] | %5
 [E,B,E][E,B,E][E,B,E] [E,B,E][E,A,B,][E,G,B,] | [E,E][E,E][E,E] [E,E]2 [E,B,] | %7
 [F,B,F][F,B,F][F,B,F] [F,CF][F,B,F][F,=A,E] | [B,,B,][B,,F,][B,,G,] [B,,A,]3 | %9
 [E,G,E]>[E,B,E][E,A,E] [E,G,]F,G, | [A,CE]>[A,B,E][A,E] [E,G,E]2 [E,G,E] | %11
 [B,,F,][B,,B,][B,,B,] [B,,B,][B,,B,]B,, |[M:5/8] E,E,E, [E,E]2 |[M:1/8] [E,E] | %14
[M:3/4][K:treble] [A,EA][A,EA] [A,EA] [A,EA]2 [A,CE]/[K:bass][A,CE]/ | %15
 [G,B,E][G,B,E] [F,D] [E,E]2 [E,B,] | [B,,B,]>[B,,B,] [B,,B,][B,,B,]- [B,,B,]/[B,,B,]/[B,,A,] | %17
[M:5/8] [E,G,]-[E,G,]- [E,G,]3 |] %18
V:3
 x6 | x6 | x6 | x6 | x6 | x6 | x6 | x6 | x6 | z3 E3 | x6 | x6 |[M:5/8] x5 |[M:1/8] x |[M:3/4] x6 | %15
 x6 | x6 |[M:5/8] x5 |] %18

